src/img/logo.svg

<svg width="225" height="214" fill="none" xmlns="http://www.w3.org/2000/svg"><path d="M187.744 114.241c.67-31.958-24.781-58.503-56.731-59.179-31.956-.675-58.506 24.773-59.182 56.727-.01.538.041 1.035.046 1.574h-.005c0 .162.02.324.02.497.021 1.635.089 3.28.251 4.885.076.854.218 1.696.333 2.539.134.944.249 1.879.432 2.793.061.33.086.66.15.98h.083c.681 3.199 1.569 6.316 2.755 9.303h-.114c1.627 4.164 3.75 8.079 6.246 11.71h.249a58.207 58.207 0 0021.762 18.783h-.675a57.47 57.47 0 0022.988 6.286c.011-.102 0-.233 0-.34.741.046 1.463.143 2.214.162 6.957.138 13.619-1 19.855-3.133v.346a57.217 57.217 0 0014.035-7.019v-.365c14.897-10.186 24.871-27.146 25.288-46.549zm-58.885 42.173c-20.439-.427-37.275-15.011-41.457-34.154-.135-.65-.294-1.29-.399-1.94-.114-.7-.193-1.411-.276-2.112-.165-1.513-.302-3.036-.308-4.601-.005-.508-.056-.995-.045-1.513.041-2.021.269-4.002.582-5.952h.058a43.083 43.083 0 013.738-11.702h-.175c7.117-14.965 22.503-25.202 40.111-24.829 6.348.135 12.329 1.666 17.712 4.233v.345a43.667 43.667 0 0114.046 10.685v-.344c6.86 7.868 10.963 18.169 10.729 29.401-.504 23.933-20.388 42.995-44.316 42.483zm95.471 44.701l-13.086 12.543-43.579-45.463 13.081-12.543 43.584 45.463zM66.354 57.162H36.087c-7.274 0-7.274-11.705 0-11.705h30.267c7.279 0 7.279 11.705 0 11.705zM36.087 76.085c-7.274 0-7.274-11.705 0-11.705h30.267c7.274 0 7.274 11.705 0 11.705H36.087zm126.368 17.544v39.374a38.868 38.868 0 01-14.04 13.63V80.025c5.783 3.245 10.612 7.958 14.04 13.604zm-14.04 80.049c4.971-1.554 9.663-3.772 14.04-6.448v44.401H0V.672h132.271l30.184 29.27v29.432c-4.418-2.684-9.12-4.827-14.04-6.345V37.007h-23.38V14.715H14.043v182.87h134.371v-23.907h.001zm-27.457-27.608h-10.841a38.418 38.418 0 01-12.225-11.71h23.071c7.266.005 7.266 11.71-.005 11.71zm-86.453-11.705h35.749a61.42 61.42 0 005.548 11.71H34.505c-7.269-.005-7.269-11.71 0-11.71zm86.453-9.298H93.44a37.954 37.954 0 01-1.846-11.71h29.358c7.277 0 7.277 11.71.006 11.71zm-86.453-11.71h32.156c-.005 3.966.338 7.887 1.056 11.71H34.505c-7.269 0-7.269-11.71 0-11.71zm86.453-7.205h-28.66a37.811 37.811 0 014.357-11.708h24.303c7.271 0 7.271 11.708 0 11.708zM34.505 94.444h35.074a62.1 62.1 0 00-2.531 11.708H34.506c-7.27 0-7.27-11.708-.001-11.708zm56.185 82.129c-7.274 0-7.274-11.699 0-11.699h2.574c8.77 6.256 18.951 10.115 29.754 11.263-.604.244-1.279.437-2.057.437l-30.271-.001z" fill="#3DB8DB"/><path d="M85.414 129.281h-42.89L32.89 156H18.969L58.062 53.625h11.813L109.039 156H95.187l-9.773-26.719zm-38.812-11.109h34.804L63.97 70.289l-17.367 47.883z" fill="#67B930"/></svg>

<svg width="225" height="214" viewBox="0 0 225 214" fill="none" xmlns="http://www.w3.org/2000/svg">
<path d="M187.744 114.241C188.414 82.283 162.963 55.738 131.013 55.062C99.057 54.387 72.507 79.835 71.831 111.789C71.821 112.327 71.872 112.824 71.877 113.363H71.872C71.872 113.525 71.892 113.687 71.892 113.86C71.913 115.495 71.981 117.14 72.143 118.745C72.219 119.599 72.361 120.441 72.476 121.284C72.61 122.228 72.725 123.163 72.908 124.077C72.969 124.407 72.994 124.737 73.058 125.057C73.083 125.057 73.109 125.057 73.141 125.057C73.822 128.256 74.71 131.373 75.896 134.36C75.86 134.36 75.817 134.36 75.782 134.36C77.409 138.524 79.532 142.439 82.028 146.07C82.111 146.07 82.188 146.07 82.277 146.07C87.82 154.007 95.287 160.496 104.039 164.853C103.816 164.853 103.587 164.853 103.364 164.853C110.326 168.438 118.095 170.652 126.352 171.139C126.363 171.037 126.352 170.906 126.352 170.799C127.093 170.845 127.815 170.942 128.566 170.961C135.523 171.099 142.185 169.961 148.421 167.828V168.174C153.438 166.468 158.16 164.112 162.456 161.155V160.79C177.353 150.604 187.327 133.644 187.744 114.241ZM128.859 156.414C108.42 155.987 91.584 141.403 87.402 122.26C87.267 121.61 87.108 120.97 87.003 120.32C86.889 119.62 86.81 118.909 86.727 118.208C86.562 116.695 86.425 115.172 86.419 113.607C86.414 113.099 86.363 112.612 86.374 112.094C86.415 110.073 86.643 108.092 86.956 106.142C86.976 106.142 86.994 106.142 87.014 106.142C87.71 102.011 88.979 98.086 90.752 94.44C90.696 94.44 90.632 94.44 90.577 94.44C97.694 79.475 113.08 69.238 130.688 69.611C137.036 69.746 143.017 71.277 148.4 73.844V74.189C153.793 76.766 158.556 80.422 162.446 84.874V84.53C169.306 92.398 173.409 102.699 173.175 113.931C172.671 137.864 152.787 156.926 128.859 156.414ZM224.33 201.115L211.244 213.658L167.665 168.195L180.746 155.652L224.33 201.115ZM66.354 57.162C56.267 57.162 46.179 57.162 36.087 57.162C28.813 57.162 28.813 45.457 36.087 45.457C46.179 45.457 56.267 45.457 66.354 45.457C73.633 45.457 73.633 57.162 66.354 57.162ZM36.087 76.085C28.813 76.085 28.813 64.38 36.087 64.38C46.179 64.38 56.267 64.38 66.354 64.38C73.628 64.38 73.628 76.085 66.354 76.085C56.267 76.085 46.184 76.085 36.087 76.085ZM162.455 93.629V133.003C159.013 138.671 154.168 143.373 148.415 146.633V80.025C154.198 83.27 159.027 87.983 162.455 93.629ZM148.415 173.678C153.386 172.124 158.078 169.906 162.455 167.23V211.631H0V0.671997H132.271L162.455 29.942V59.374C158.037 56.69 153.335 54.547 148.415 53.029V37.007H125.035V14.715H14.043V197.585H148.414V173.678H148.415ZM120.958 146.07C119.069 146.07 115.21 146.07 110.117 146.07C105.219 143.12 101.033 139.113 97.892 134.36C108.852 134.36 117.749 134.36 120.963 134.36C128.229 134.365 128.229 146.07 120.958 146.07ZM34.505 134.365C38.89 134.365 53.88 134.365 70.254 134.365C71.689 138.448 73.534 142.368 75.802 146.075C57.374 146.075 39.383 146.075 34.505 146.075C27.236 146.07 27.236 134.365 34.505 134.365ZM120.958 125.067C117.332 125.067 106.399 125.067 93.44 125.067C92.244 121.371 91.594 117.44 91.594 113.357C105.353 113.357 117.149 113.357 120.952 113.357C128.229 113.357 128.229 125.067 120.958 125.067ZM34.505 113.357C38.567 113.357 51.727 113.357 66.661 113.357C66.656 117.323 66.999 121.244 67.717 125.067C52.351 125.067 38.658 125.067 34.505 125.067C27.236 125.067 27.236 113.357 34.505 113.357ZM120.958 106.152C117.211 106.152 105.75 106.152 92.298 106.152C93.108 101.97 94.591 98.024 96.655 94.444C108.177 94.444 117.627 94.444 120.958 94.444C128.229 94.444 128.229 106.152 120.958 106.152ZM34.505 94.444C38.827 94.444 53.469 94.444 69.579 94.444C68.378 98.214 67.515 102.124 67.048 106.152C51.951 106.152 38.604 106.152 34.506 106.152C27.236 106.152 27.236 94.444 34.505 94.444ZM90.69 176.573C83.416 176.573 83.416 164.874 90.69 164.874C91.548 164.874 92.406 164.874 93.264 164.874C102.034 171.13 112.215 174.989 123.018 176.137C122.414 176.381 121.739 176.574 120.961 176.574C110.865 176.573 100.783 176.573 90.69 176.573Z" fill="#3DB8DB"/>
<path d="M85.4141 129.281H42.5234L32.8906 156H18.9688L58.0625 53.625H69.875L109.039 156H95.1875L85.4141 129.281ZM46.6016 118.172H81.4062L63.9688 70.2891L46.6016 118.172Z" fill="#67B930"/>
</svg>
